X: 793
T: Gel Gönlümü Yerden Yere...
C: Erdinç Çelikkol
O: Turkey
F: http://compmusic.upf.edu/node/140
N: nihavent--fantezi--nimsofyan--gel_gonlumu--erdinc_celikkol
N: makam= nihavent
N: form= fantezi
N: usul= nimsofyan = 2/4
M: 2/4
L: 1/16
K: C _B _e  
Q: 1/4=80
%%MIDI tuningsystem comma53
gfed gfed  | gfed d2B/A/G  | gfed gfed  | 
w:  ARANAĞME  |   |   | 
gfed d2_1/4B/c/d  | e2cd e2c/d/e  | d2Bc d2B/c/d  | 
w:   |   |   | 
c2AB c2A/B/c  | dcBA G2B/c/d  | e2cd e2c/d/e  | 
w:   |   |   | 
d2Bc d2B/c/d  | c2AB c2A/B/c  | dcBA G2B/A/G  | 
w:   |   |   | 
g2f2 ed3  | g2f2 ed3  | g2fg a4  | gfed d2B/A/G  | \
w:  Gel  gön lü mü   |  yer den  ye re   |  vur ma  gü zel   |  ne  o lur  *  sun   SAZ  | 
g2f2 ed3  | 
w:  Gel  gön lü mü   | 
g2f2 ed3  | g2fg a4  | gfed d2B/c/d  | e2c/d3/2 e4  | \
w:  yer den  ye re   |  vur ma  gü zel   |  ne  o lur *  sun   SAZ  |  Gül du rur ken   | 
dB2c d4  | 
w:  di ken le ri   | 
c2AB c4  | dcBA G2B/c/d  | e2c/d3/2 e4  | \
w:  der me  gü zel   |  ne  o lur *  sun   SAZ  |  Gül du rur ken   | 
dB2c d4  | c2AB c4  | 
w:  di ken le ri   |  der me  gü zel   | 
dcBA G2g/a/b  | b2ga b2g/a/b  | a2fg a2f/g/a  | 
w:  ne  o lur *  sun   SAZ  |  Git  di ye mem  SAZ  |  kal  di ye mem  SAZ  | 
g2e3/2f/ g2e/f/g  | gfed d2g/a/b  | b2ga b2g/a/b  | 
w:  sen  gon ca sın  SAZ  |  gül  *  di ye mem   SAZ  |  Git  di ye mem  SAZ  | 
a2fg a2f/g/a  | g2e3/2f/ g2e/f/g  | gfed d2B/c/d  | 
w:  kal  di ye mem  SAZ  |  sen  gon ca sın  SAZ  |  gül  *  di ye mem   SAZ  | 
e2cd e2c/d/e  | d2Bc d2B/c/d  | c2AB c2A/B/c  | 
w:  Çok  se ve rim  SAZ  |  söy le ye mem  SAZ  |  sor ma  gü zel  SAZ  | 
dcBA G2B/c/d  | e2cd e2c/d/e  | d2Bc d2B/c/d  | 
w:  ne  o lur *  sun   SAZ  |  Çok  se ve rim  SAZ  |  söy le ye mem  SAZ  | 
c2AB c2A/B/c  | dcBA G2B/A/G  | |


